packages/icons/src/gitops-gnupg-key-blue-circle.svg

<svg fill="none" viewBox="0 0 32 32" xmlns="http://www.w3.org/2000/svg"><circle cx="16" cy="16" fill="#00ade4" r="16"/><path clip-rule="evenodd" d="m18.1143 10.6477c-1.7543 0-3.1764 1.4221-3.1764 3.1765 0 1.7543 1.4221 3.1764 3.1764 3.1764 1.7544 0 3.1765-1.4221 3.1765-3.1764 0-1.7544-1.4221-3.1765-3.1765-3.1765zm-4.2353 3.1765c0-2.3391 1.8963-4.23533 4.2353-4.23533 2.3391 0 4.2353 1.89623 4.2353 4.23533 0 2.339-1.8962 4.2353-4.2353 4.2353-.5757 0-1.1247-.1149-1.6251-.3231v1.3843c0 .2924-.2371.5294-.5295.5294h-1.5408v.9503c0 .1404-.0558.2751-.1551.3744-.0992.0993-.2339.155-.3743.155h-1.0693v1.2217c0 .2924-.2371.5294-.5295.5294l-2.9565.0001c-.29238 0-.5294-.2371-.52941-.5294l-.0001-1.7511c-.00001-.1404.05577-.2751.15506-.3744l5.11755-5.1176c-.1288-.4051-.1983-.8366-.1983-1.2843zm.6791 2.301-4.69458 4.6945.00006 1.0024h1.89772v-1.2217c0-.2924.2371-.5294.5294-.5294h1.0694v-.9503c0-.2924.237-.5294.5294-.5294h1.5408v-1.4907c-.3385-.2777-.6333-.6068-.8722-.9754zm3.9771-3.5827c-.4386 0-.7941.3556-.7941.7942 0 .4385.3555.7941.7941.7941s.7941-.3556.7941-.7941c0-.4386-.3555-.7942-.7941-.7942zm-1.853.7942c0-1.0234.8296-1.853 1.853-1.853 1.0233 0 1.8529.8296 1.8529 1.853 0 1.0233-.8296 1.8529-1.8529 1.8529-1.0234 0-1.853-.8296-1.853-1.8529z" fill="#fafcff" fill-rule="evenodd"/></svg>

<svg viewBox="0 0 32 32" fill="none" xmlns="http://www.w3.org/2000/svg">
<circle cx="16" cy="16" r="16" fill="#00ADE4"/>
<path fill-rule="evenodd" clip-rule="evenodd" d="M18.1143 10.6477C16.36 10.6477 14.9379 12.0698 14.9379 13.8242C14.9379 15.5785 16.36 17.0006 18.1143 17.0006C19.8687 17.0006 21.2908 15.5785 21.2908 13.8242C21.2908 12.0698 19.8687 10.6477 18.1143 10.6477ZM13.879 13.8242C13.879 11.4851 15.7753 9.58887 18.1143 9.58887C20.4534 9.58887 22.3496 11.4851 22.3496 13.8242C22.3496 16.1632 20.4534 18.0595 18.1143 18.0595C17.5386 18.0595 16.9896 17.9446 16.4892 17.7364L16.4892 19.1207C16.4892 19.4131 16.2521 19.6501 15.9597 19.6501L14.4189 19.6501V20.6004C14.4189 20.7408 14.3631 20.8755 14.2638 20.9748C14.1646 21.0741 14.0299 21.1298 13.8895 21.1298H12.8202V22.3515C12.8202 22.6439 12.5831 22.8809 12.2907 22.8809L9.3342 22.881C9.04182 22.881 8.8048 22.6439 8.80479 22.3516L8.80469 20.6005C8.80468 20.4601 8.86046 20.3254 8.95975 20.2261L14.0773 15.1085C13.9485 14.7034 13.879 14.2719 13.879 13.8242ZM14.5581 16.1252L9.86352 20.8197L9.86358 21.8221H11.7613L11.7613 20.6004C11.7613 20.308 11.9984 20.071 12.2907 20.071L13.3601 20.071L13.3601 19.1207C13.3601 18.8283 13.5971 18.5913 13.8895 18.5913L15.4303 18.5913L15.4303 17.1006C15.0918 16.8229 14.797 16.4938 14.5581 16.1252ZM18.5352 12.5425C18.0966 12.5425 17.7411 12.8981 17.7411 13.3367C17.7411 13.7752 18.0966 14.1308 18.5352 14.1308C18.9738 14.1308 19.3293 13.7752 19.3293 13.3367C19.3293 12.8981 18.9738 12.5425 18.5352 12.5425ZM16.6822 13.3367C16.6822 12.3133 17.5118 11.4837 18.5352 11.4837C19.5585 11.4837 20.3881 12.3133 20.3881 13.3367C20.3881 14.36 19.5585 15.1896 18.5352 15.1896C17.5118 15.1896 16.6822 14.36 16.6822 13.3367Z" fill="#FAFCFF"/>
</svg>
